app/images/dist/call-outgoing.svg

<svg width="48" height="48" viewBox="0 0 48 48" fill="none" xmlns="http://www.w3.org/2000/svg">
<path d="M40.6163 34.5499C40.6163 35.1499 40.483 35.7666 40.1997 36.3666C39.9163 36.9666 39.5497 37.5333 39.0663 38.0666C38.2497 38.9666 37.3497 39.6166 36.333 40.0333C35.333 40.4499 34.2497 40.6666 33.083 40.6666C31.383 40.6666 29.5663 40.2666 27.6497 39.4499C25.733 38.6333 23.8163 37.5333 21.9163 36.1499C19.9997 34.7499 18.183 33.1999 16.4497 31.4833C14.733 29.7499 13.183 27.9333 11.7997 26.0333C10.433 24.1333 9.33301 22.2333 8.53301 20.3499C7.73301 18.4499 7.33301 16.6333 7.33301 14.8999C7.33301 13.7666 7.53301 12.6833 7.93301 11.6833C8.33301 10.6666 8.96634 9.73325 9.84967 8.89992C10.9163 7.84992 12.083 7.33325 13.3163 7.33325C13.783 7.33325 14.2497 7.43325 14.6663 7.63325C15.0997 7.83325 15.483 8.13325 15.783 8.56659L19.6497 14.0166C19.9497 14.4333 20.1663 14.8166 20.3163 15.1833C20.4663 15.5333 20.5497 15.8833 20.5497 16.1999C20.5497 16.5999 20.433 16.9999 20.1997 17.3833C19.983 17.7666 19.6663 18.1666 19.2663 18.5666L17.9997 19.8833C17.8163 20.0666 17.733 20.2833 17.733 20.5499C17.733 20.6833 17.7497 20.7999 17.783 20.9333C17.833 21.0666 17.883 21.1666 17.9163 21.2666C18.2163 21.8166 18.733 22.5333 19.4663 23.3999C20.2163 24.2666 21.0163 25.1499 21.883 26.0333C22.783 26.9166 23.6497 27.7333 24.533 28.4833C25.3997 29.2166 26.1163 29.7166 26.683 30.0166C26.7663 30.0499 26.8663 30.0999 26.983 30.1499C27.1163 30.1999 27.2497 30.2166 27.3997 30.2166C27.683 30.2166 27.8997 30.1166 28.083 29.9333L29.3497 28.6833C29.7663 28.2666 30.1663 27.9499 30.5497 27.7499C30.933 27.5166 31.3163 27.3999 31.733 27.3999C32.0497 27.3999 32.383 27.4666 32.7497 27.6166C33.1163 27.7666 33.4997 27.9833 33.9163 28.2666L39.433 32.1833C39.8663 32.4833 40.1663 32.8333 40.3497 33.2499C40.5163 33.6666 40.6163 34.0833 40.6163 34.5499Z" stroke="#DC143C" stroke-width="1.5" stroke-miterlimit="10"/>
<path d="M37.333 10.6667H29.333M37.333 10.6667V18.6667V10.6667Z" stroke="#DC143C" stroke-width="1.5" stroke-linecap="round" stroke-linejoin="round"/>
</svg>

<svg width="48" height="48" fill="none" xmlns="http://www.w3.org/2000/svg"><path d="M40.616 34.55c0 .6-.133 1.217-.416 1.817-.284.6-.65 1.166-1.134 1.7-.816.9-1.716 1.55-2.733 1.966a8.37 8.37 0 0 1-3.25.634c-1.7 0-3.517-.4-5.433-1.217-1.917-.817-3.834-1.917-5.734-3.3a47.925 47.925 0 0 1-5.466-4.667 47.355 47.355 0 0 1-4.65-5.45c-1.367-1.9-2.467-3.8-3.267-5.683-.8-1.9-1.2-3.717-1.2-5.45 0-1.133.2-2.217.6-3.217.4-1.016 1.033-1.95 1.917-2.783 1.066-1.05 2.233-1.567 3.466-1.567.467 0 .934.1 1.35.3.434.2.817.5 1.117.934l3.867 5.45c.3.416.516.8.666 1.166.15.35.234.7.234 1.017 0 .4-.117.8-.35 1.183-.217.384-.534.784-.934 1.184L18 19.883a.892.892 0 0 0-.267.667c0 .133.017.25.05.383.05.134.1.234.133.334.3.55.817 1.266 1.55 2.133.75.867 1.55 1.75 2.417 2.633.9.884 1.767 1.7 2.65 2.45.867.734 1.583 1.234 2.15 1.534.083.033.183.083.3.133.133.05.267.067.417.067.283 0 .5-.1.683-.284l1.267-1.25c.416-.416.816-.733 1.2-.933a2.22 2.22 0 0 1 1.183-.35c.317 0 .65.067 1.017.217.366.15.75.366 1.166.65l5.517 3.916c.433.3.733.65.917 1.067.166.417.266.833.266 1.3Z" stroke="#DC143C" stroke-width="1.5" stroke-miterlimit="10"/><path d="M37.333 10.667h-8m8 0v8-8Z" stroke="#DC143C" stroke-width="1.5" stroke-linecap="round" stroke-linejoin="round"/></svg>
